X: 29068
T: Neil Smith's
R: waltz
M: 3/4
K: Gmajor
D2|:B2BA GB|d2G2 Gc|e2 ed ce|d2G2B2|
[1 c2 cB Ac|B2 BAGB|A^c ea ge|f2d2c2:|
[2 cd eg ce|dg B2B2|ce Ac FA|G4||
d2|b2 ba gf|g2B2d2|ef gc eg|d2B2Bd|
cE ca ec|BD Bb gd|A2 ^ce ag|
f2 ^ce d=c|B2 BA GB|d2G2 Gc|e2 ed ce|
d2G2B2|cd eg ce|dg B2 B2|ce Ac FA|G4||

